X: 41
T: March
C: Armand Aromin
H: 4/22/05
M: 4/4
L: 1/8
R: March
K: Gmaj
(3ABc || d2 (3GGG d2 (3GGG | e2 f2 g2 (3ABc | d2 (3GGG d2 (3GGG |  B2 A2 A2 (3ABc |
d2 (3GGG d2 (3GGG | e2 f2 g2 (3def g2 fe dcBA | G2 g2 G2 (3ABc :|
